public/assets/images/icons/whatsapp.svg

<svg width="75" height="75" viewBox="0 0 75 75" fill="none" xmlns="http://www.w3.org/2000/svg">
<path fill-rule="evenodd" clip-rule="evenodd" d="M63.5793 11.58C56.6162 4.64226 47.3558 0.819573 37.4898 0.815674C17.1613 0.815674 0.616328 17.2803 0.608193 37.5179C0.605481 43.987 2.30386 50.3017 5.53117 55.8678L0.29895 74.8881L19.8504 69.7841C25.2372 72.7081 31.3024 74.2491 37.4751 74.2517H37.4902C57.8167 74.2517 74.3631 57.785 74.3714 37.5472C74.3753 27.7397 70.5427 18.5178 63.5793 11.58ZM37.4902 68.0524H37.4777C31.9772 68.0503 26.5821 66.5797 21.8756 63.8001L20.7562 63.1389L9.1542 66.1678L12.251 54.9101L11.5221 53.756C8.45356 48.8986 6.83282 43.2845 6.83523 37.5202C6.84196 20.6995 20.5936 7.01484 37.5024 7.01484C45.69 7.01794 53.3868 10.1954 59.1744 15.9618C64.962 21.7283 68.1476 29.3932 68.1444 37.5448C68.1374 54.3668 54.386 68.0524 37.4902 68.0524ZM54.3047 45.2041C53.3831 44.7451 48.8525 42.5263 48.0077 42.2202C47.163 41.9141 46.5488 41.7612 45.9343 42.6793C45.32 43.5974 43.554 45.6632 43.0162 46.2753C42.4788 46.8874 41.9413 46.964 41.0197 46.5048C40.0982 46.0458 37.1289 45.0774 33.6089 41.9528C30.8695 39.5212 29.0199 36.5176 28.4823 35.5995C27.9448 34.6813 28.4252 34.1849 28.8865 33.7277C29.301 33.3168 29.808 32.6566 30.2688 32.121C30.7295 31.5854 30.8831 31.2029 31.1902 30.5909C31.4974 29.9787 31.3439 29.4431 31.1134 28.9841C30.883 28.525 29.0401 24.0109 28.2721 22.1746C27.5242 20.3862 26.7644 20.6282 26.1987 20.6002C25.6618 20.5736 25.0468 20.5679 24.4325 20.5679C23.8182 20.5679 22.8198 20.7975 21.9751 21.7156C21.1304 22.6337 18.7499 24.8525 18.7499 29.3666C18.7499 33.8807 22.0519 38.2417 22.5127 38.8539C22.9734 39.466 29.0108 48.7296 38.2552 52.7022C40.4538 53.6471 42.1704 54.2113 43.5087 54.6342C45.7164 55.332 47.7253 55.2336 49.3132 54.9975C51.0837 54.7342 54.7653 52.7788 55.5334 50.6365C56.3013 48.4942 56.3013 46.6579 56.0709 46.2754C55.8406 45.8928 55.2262 45.6632 54.3047 45.2041Z" fill="#194BFF"/>
</svg>

<?xml version="1.0" encoding="UTF-8"?>
<svg id="Capa_1" xmlns="http://www.w3.org/2000/svg" version="1.1" viewBox="0 0 75 75">
  <!-- Generator: Adobe Illustrator 30.0.0, SVG Export Plug-In . SVG Version: 2.1.1 Build 123)  -->
  <defs>
    <style>
      .st0 {
        fill: #ea6300;
        fill-rule: evenodd;
      }
    </style>
  </defs>
  <path class="st0" d="M63.58,11.58C56.62,4.64,47.36.82,37.49.82,17.16.82.62,17.28.61,37.52c0,6.47,1.7,12.78,4.92,18.35L.3,74.89l19.55-5.1c5.39,2.92,11.45,4.46,17.62,4.47h.02c20.33,0,36.87-16.47,36.88-36.7,0-9.81-3.83-19.03-10.79-25.97ZM37.49,68.05h-.01c-5.5,0-10.9-1.47-15.6-4.25l-1.12-.66-11.6,3.03,3.1-11.26-.73-1.15c-3.07-4.86-4.69-10.47-4.69-16.24,0-16.82,13.76-30.51,30.67-30.51,8.19,0,15.88,3.18,21.67,8.95,5.79,5.77,8.97,13.43,8.97,21.58,0,16.82-13.76,30.51-30.65,30.51ZM54.3,45.2c-.92-.46-5.45-2.68-6.3-2.98-.84-.31-1.46-.46-2.07.46-.61.92-2.38,2.98-2.92,3.6-.54.61-1.07.69-2,.23-.92-.46-3.89-1.43-7.41-4.55-2.74-2.43-4.59-5.44-5.13-6.35-.54-.92-.06-1.41.4-1.87.41-.41.92-1.07,1.38-1.61.46-.54.61-.92.92-1.53.31-.61.15-1.15-.08-1.61-.23-.46-2.07-4.97-2.84-6.81-.75-1.79-1.51-1.55-2.07-1.57-.54-.03-1.15-.03-1.77-.03s-1.61.23-2.46,1.15c-.84.92-3.23,3.14-3.23,7.65s3.3,8.88,3.76,9.49c.46.61,6.5,9.88,15.74,13.85,2.2.94,3.92,1.51,5.25,1.93,2.21.7,4.22.6,5.8.36,1.77-.26,5.45-2.22,6.22-4.36.77-2.14.77-3.98.54-4.36-.23-.38-.84-.61-1.77-1.07Z"/>
</svg>
